!!!COM: Anonymous
!!!OTL: J'ay pris deux poux a ma chemise
!!!AGN: Song; Chanson; Rondeau
!!!SCT: Ano3150
!!!SCA: Ano3150
!!!SMS: Dijon Chansonnier
!!!folio: 127v-128r
!!!voices: 3
**kern	**kern	**kern
*staff3	*staff2	*staff1
*Ivox	*Ivox	*Ivox
*I"Contra	*I"Tenor	*I"Discantus
*I'C	*I'T	*I'D
*clefF4	*clefGv2	*clefG2
*k[]	*k[]	*k[]
*M2/1	*M2/1	*M2/1
*met(C)	*met(C)	*met(C)
=1-	=1-	=1-
!	!LO:TX:X=-40:Z=24:t=MS&colon; T flat sig.	!
1A	0a	0a
[1d	.	.
=2	=2	=2
2d]	1f	1dd
2c	.	.
2B	1g	1dd
2A	.	.
=3	=3	=3
1A	1.a	[0cc#
2F	.	.
2G	4g	.
.	4f	.
=4	=4	=4
2A	0e	0cc#]
4G	.	.
4F	.	.
1E	.	.
=5	=5	=5
2.F	1.d	1r
4D	.	.
1D	.	[1ff
.	4c	.
.	4B	.
=6	=6	=6
1r	2A	1ff]
.	2.a	.
1C	.	1ee
.	4g	.
.	2g	.
=7	=7	=7
1D	2f	2dd
.	2d	1dd
1A	1e	.
.	.	2cc#i
=8	=8	=8
2B	1d	2dd
1G	.	2.b
.	2e	.
.	.	4a
2A	2c	[2a
=9	=9	=9
1E	1B	2a]
.	.	2g
2.F	1A	2a
.	.	[2f
4D	.	.
=10	=10	=10
1D	2d	2f]
.	1d	2d
1A	.	1e
.	2c#i	.
=11	=11	=11
1D	[0d	0d
1r	.	.
=12	=12	=12
2F	0d]	0r
1G	.	.
2F	.	.
=13	=13	=13
2D	0r	1a
2F	.	.
2E	.	2g
2C	.	2e
=14	=14	=14
2r	1a	1f
2D	.	.
2E	2g	1e
2C	2e	.
=15	=15	=15
2D	1f	2d
2F	.	2a
2G	1e	2b
2A	.	2cc
=16	=16	=16
1D	2d	2dd
.	1a	1ff
1r	.	.
.	2g	2ee
=17	=17	=17
1D	2.f	2.dd
.	8eL	8ccL
.	8dJ	8bJ
2A	2.e	2.cc
[2E	.	.
.	8dL	8bL
.	8cJ	8aJ
=18	=18	=18
2E]	1B	1g
2G	.	.
2D	1A	2r
2F	.	2cc
=19	=19	=19
2G	2G	4b
.	.	4a
2D	2A	1a
2G	1B	.
2E	.	2g
=20	=20	=20
2.F	1.A	1.a
4D	.	.
2.F	.	.
.	2B	4g
4A	.	4f
=21	=21	=21
1AN	0cN	0e
1r	.	.
=22	=22	=22
2B-i	1d	0r
2G	.	.
2A	1c	.
2F	.	.
=23	=23	=23
2r	1f	1d
2D	.	.
1A	2e	1c
.	[2a	.
=24	=24	=24
1d	2a]	1f
.	2f	.
2c	2g	2e
2d	4f	[2a
.	4e	.
=25	=25	=25
2r	1d	2a]
2D	.	2f
1C	1r	2g
.	.	4f
.	.	4e
=26	=26	=26
1G	1B	1d
2.F	2.A	1r
4G	4B	.
=27	=27	=27
2.A	2.c	2.e
4G	4d	4f
2E	2e	2g
[2D	[2f	[2a
=28	=28	=28
2D]	4f]	4a]
.	4d	4g
2D	1d	2f
1A	.	1e
.	2c#i	.
=29	=29	=29
1r	1d	2f
.	.	4e
.	.	4d
2A	1r	2.c
[2A	.	.
.	.	4d
=30	=30	=30
2A]	2.c	2.e
4G	.	.
4F	4d	4f
2.E	2.e	2.g
4F	4d	4a
=31	=31	=31
2G	2B	2b
1F	1A	2.cc
.	.	4b
2G	2G	[2b
=32	=32	=32
2F	2A	4b]
.	.	4a
2A	2c	1a
1E	1B	.
.	.	2g#i
=33	=33	=33
2F	[0A	0a
4E	.	.
4D	.	.
2C	.	.
2D	.	.
=34	=34	=34
2AA	0A]	1r
2.D	.	.
.	.	1a
4E	.	.
2F	.	.
=35	=35	=35
1G	1r	1b
2F	1A	1cc
2A	.	.
=36	=36	=36
4G	1B	1dd
4F	.	.
4E	.	.
4D	.	.
2C	1c	1ee
2E	.	.
=37	=37	=37
1D	1d	2r
.	.	2ff
[1A	[1e	2ee
.	.	[2cc
=38	=38	=38
2A]	2e]	2cc]
2D	2f	2dd
1A	2e	[1ee
.	[2a	.
=39	=39	=39
2r	1.a]	2ee]
2A	.	4dd
.	.	4cc
1d	.	2.b
.	2g	.
.	.	4a
=40	=40	=40
1.A	2a	2.a
.	4g	.
.	4f	4b
.	2.e	2.cc
4G	.	.
4F	4f	4dd
=41	=41	=41
2E	2g	2ee
2D	1a	2.ff
2F	.	.
.	.	8eeL
.	.	8ddJ
[2C	[2g	[2ee
=42	=42	=42
2C]	2g]	4ee]
.	.	4dd
4D	2.f	2.dd
4E	.	.
2F	.	.
.	4e	4cc
2G	2d	2b
=43	=43	=43
2A	2c	2a
2B	2d	1dd
1A	1e	.
.	.	2cc#i
=44	=44	=44
0Dl	0dl	0ddl
==	==	==
*-	*-	*-
!!!RDF**kern: l=long note in original notation
!!!RDF**kern: i=editorial accidental
!!!RDF**kern: N=signum congruentiae
!!!ENC: Chris Gage 1-25-2017
!!!END: 2018/12/10/
!!!EED: Jesse Rodin
!!!EEV: 2018/12/13/
!!!ONB: Translated from MusicXML and edited on 2018/12/13/ by Craig Sapp
!!muse2ps: C^@{COM}\n@{SMS}, @{folio}^v95,95,150c140
